svg/inventree.svg

<?xml version="1.0" encoding="UTF-8" standalone="no"?>
<!-- Created with Inkscape (http://www.inkscape.org/) -->

<svg
   xmlns:dc="http://purl.org/dc/elements/1.1/"
   xmlns:cc="http://creativecommons.org/ns#"
   xmlns:rdf="http://www.w3.org/1999/02/22-rdf-syntax-ns#"
   xmlns:svg="http://www.w3.org/2000/svg"
   xmlns="http://www.w3.org/2000/svg"
   xmlns:sodipodi="http://sodipodi.sourceforge.net/DTD/sodipodi-0.dtd"
   xmlns:inkscape="http://www.inkscape.org/namespaces/inkscape"
   sodipodi:docname="inventree.svg"
   inkscape:version="0.92.4 (5da689c313, 2019-01-14)"
   version="1.1"
   id="svg2"
   viewBox="0 0 400 400.00001"
   height="400"
   width="400"
   inkscape:export-filename="C:\inventree\images\logo\inventree.png"
   inkscape:export-xdpi="499.92001"
   inkscape:export-ydpi="499.92001">
  <sodipodi:namedview
     inkscape:window-maximized="1"
     inkscape:window-y="-8"
     inkscape:window-x="-8"
     inkscape:window-height="1017"
     inkscape:window-width="1920"
     showgrid="false"
     inkscape:current-layer="g2907"
     inkscape:document-units="px"
     inkscape:cy="426.62472"
     inkscape:cx="-960.58794"
     inkscape:zoom="0.31819805"
     inkscape:pageshadow="2"
     inkscape:pageopacity="0.0"
     borderopacity="1.0"
     bordercolor="#666666"
     pagecolor="#ffffff"
     id="base"
     units="px" />
  <defs
     id="defs4">
    <inkscape:path-effect
       effect="skeletal"
       id="path-effect4158"
       is_visible="true"
       pattern="m 446.48742,503.05596 1,0"
       copytype="single_stretched"
       prop_scale="1"
       scale_y_rel="false"
       spacing="0"
       normal_offset="0"
       tang_offset="0"
       prop_units="false"
       vertical_pattern="false"
       fuse_tolerance="0"
       pattern-nodetypes="cc" />
  </defs>
  <metadata
     id="metadata7">
    <rdf:RDF>
      <cc:Work
         rdf:about="">
        <dc:format>image/svg+xml</dc:format>
        <dc:type
           rdf:resource="http://purl.org/dc/dcmitype/StillImage" />
        <dc:title />
      </cc:Work>
    </rdf:RDF>
  </metadata>
  <g
     inkscape:label="Layer 1"
     inkscape:groupmode="layer"
     id="layer1"
     transform="translate(0,-652.36216)">
    <g
       id="g2907"
       transform="matrix(1.7132796,0,0,1.7132796,460.05136,236.12365)">
      <g
         id="g5713">
        <path
           sodipodi:nodetypes="ccccc"
           inkscape:connector-curvature="0"
           id="path4896"
           d="m -151.78571,359.62883 v 112.76373 l 97.068507,-56.04253 V 303.14815 Z"
           style="fill:#ddbc91;fill-opacity:1;stroke:#000000;stroke-width:1.5622561;stroke-linecap:round;stroke-linejoin:round;stroke-miterlimit:4;stroke-dasharray:none;stroke-opacity:1" />
        <path
           style="fill:#d9b383;fill-opacity:1;stroke:#000000;stroke-width:1.5622561;stroke-linecap:round;stroke-linejoin:round;stroke-miterlimit:4;stroke-dasharray:none;stroke-opacity:1"
           d="m -151.78571,359.62883 v 112.76373 l -97.0685,-56.04253 V 303.14815 Z"
           id="path4898"
           inkscape:connector-curvature="0"
           sodipodi:nodetypes="ccccc" />
        <path
           sodipodi:nodetypes="ccccc"
           inkscape:connector-curvature="0"
           id="path4900"
           d="m -54.717203,303.14815 -97.068507,56.48068 -97.0685,-56.48068 97.0685,-56.17354 z"
           style="fill:#ddbc91;fill-opacity:1;stroke:#000000;stroke-width:1.5622561;stroke-linecap:round;stroke-linejoin:round;stroke-miterlimit:4;stroke-dasharray:none;stroke-opacity:1" />
        <g
           id="g4916"
           transform="matrix(1.4761476,0,0,1.4761476,-218.87903,128.54472)"
           style="opacity:1;vector-effect:none;fill:#f3f4e4;fill-opacity:1;stroke:#000000;stroke-width:1.05833328;stroke-linecap:round;stroke-linejoin:round;stroke-miterlimit:4;stroke-dasharray:none;stroke-dashoffset:0;stroke-opacity:1">
          <path
             id="path4910"
             transform="matrix(0.40703466,0,0,0.40703466,-35.955294,75.175547)"
             d="M 78.833984,129.19141 V 270.49609 L 200,340.45117 321.16602,270.49609 V 129.19141 L 200,199.69336 Z"
             style="vector-effect:none;fill:#f3f4e4;fill-opacity:1;stroke:#000000;stroke-width:2.600106;stroke-linecap:round;stroke-linejoin:round;stroke-miterlimit:4;stroke-dasharray:none;stroke-dashoffset:0;stroke-opacity:1"
             inkscape:connector-curvature="0" />
          <path
             style="vector-effect:none;fill:#f3f4e4;fill-opacity:1;stroke:#000000;stroke-width:1.05833328;stroke-linecap:round;stroke-linejoin:round;stroke-miterlimit:4;stroke-dasharray:none;stroke-dashoffset:0;stroke-opacity:1"
             d="M 94.770135,127.76116 45.451638,156.45782 -3.8668589,127.76116 45.451638,99.220548 Z"
             id="path4914"
             inkscape:connector-curvature="0"
             sodipodi:nodetypes="ccccc" />
        </g>
        <path
           style="opacity:1;vector-effect:none;fill:#d9dbbc;fill-opacity:1;stroke:#000000;stroke-width:1.56225622;stroke-linecap:round;stroke-linejoin:round;stroke-miterlimit:4;stroke-dasharray:none;stroke-dashoffset:0;stroke-opacity:1"
           d="m -151.7857,275.0089 v 84.49065 l -72.80137,42.54091 v -84.90142 z"
           id="path4918"
           inkscape:connector-curvature="0" />
        <path
           inkscape:connector-curvature="0"
           id="path4920"
           d="m -151.7857,275.0089 v 84.49065 l 72.801373,42.54091 v -84.90142 z"
           style="opacity:1;vector-effect:none;fill:#eaeccf;fill-opacity:1;stroke:#000000;stroke-width:1.56225622;stroke-linecap:round;stroke-linejoin:round;stroke-miterlimit:4;stroke-dasharray:none;stroke-dashoffset:0;stroke-opacity:1" />
        <g
           style="opacity:1;vector-effect:none;fill:#90a8d8;fill-opacity:1;stroke:#000000;stroke-width:1.58749998;stroke-linecap:butt;stroke-linejoin:miter;stroke-miterlimit:4;stroke-dasharray:none;stroke-dashoffset:0;stroke-opacity:1"
           transform="matrix(0.9840984,0,0,0.9840984,-196.5146,205.65597)"
           id="g4928">
          <path
             sodipodi:nodetypes="ccccc"
             inkscape:connector-curvature="0"
             id="path4922"
             d="m 45.451638,156.45782 v 57.29292 l 49.318497,-28.47405 v -57.51553 z"
             style="vector-effect:none;fill:#90a8d8;fill-opacity:1;stroke:#000000;stroke-width:1.58749998;stroke-linecap:round;stroke-linejoin:round;stroke-miterlimit:4;stroke-dasharray:none;stroke-dashoffset:0;stroke-opacity:1" />
          <path
             style="vector-effect:none;fill:#90a8d8;fill-opacity:1;stroke:#000000;stroke-width:1.58749998;stroke-linecap:round;stroke-linejoin:round;stroke-miterlimit:4;stroke-dasharray:none;stroke-dashoffset:0;stroke-opacity:1"
             d="m 45.451638,156.45782 v 57.29292 L -3.866859,185.27669 v -57.51553 z"
             id="path4924"
             inkscape:connector-curvature="0"
             sodipodi:nodetypes="ccccc" />
          <path
             sodipodi:nodetypes="ccccc"
             inkscape:connector-curvature="0"
             id="path4926"
             d="M 94.770135,127.76116 45.451638,156.45782 -3.8668589,127.76116 45.451638,99.220548 Z"
             style="vector-effect:none;fill:#90a8d8;fill-opacity:1;stroke:#000000;stroke-width:1.58749998;stroke-linecap:round;stroke-linejoin:round;stroke-miterlimit:4;stroke-dasharray:none;stroke-dashoffset:0;stroke-opacity:1" />
        </g>
      </g>
      <g
         transform="translate(0,102.8232)"
         id="g5856"
         inkscape:export-xdpi="499.92001"
         inkscape:export-ydpi="499.92001">
        <path
           style="opacity:1;vector-effect:none;fill:#90a8d8;fill-opacity:1;stroke:#000000;stroke-width:1.7510277;stroke-linecap:round;stroke-linejoin:round;stroke-miterlimit:4;stroke-dasharray:none;stroke-dashoffset:0;stroke-opacity:1"
           d="m -587.59709,399.25327 v 126.38928 l 108.79755,-62.8143 V 335.94789 Z"
           id="path5850"
           inkscape:connector-curvature="0"
           sodipodi:nodetypes="ccccc" />
        <path
           sodipodi:nodetypes="ccccc"
           inkscape:connector-curvature="0"
           id="path5852"
           d="m -587.59709,399.25327 v 126.38928 l -108.79754,-62.8143 V 335.94789 Z"
           style="opacity:1;vector-effect:none;fill:#90a8d8;fill-opacity:1;stroke:#000000;stroke-width:1.7510277;stroke-linecap:round;stroke-linejoin:round;stroke-miterlimit:4;stroke-dasharray:none;stroke-dashoffset:0;stroke-opacity:1" />
        <path
           style="opacity:1;vector-effect:none;fill:#90a8d8;fill-opacity:1;stroke:#000000;stroke-width:1.7510277;stroke-linecap:round;stroke-linejoin:round;stroke-miterlimit:4;stroke-dasharray:none;stroke-dashoffset:0;stroke-opacity:1"
           d="m -478.79954,335.94789 -108.79755,63.30538 -108.79754,-63.30538 108.79754,-62.96113 z"
           id="path5854"
           inkscape:connector-curvature="0"
           sodipodi:nodetypes="ccccc" />
      </g>
      <g
         id="g5848"
         transform="translate(0,-23.56608)"
         inkscape:export-xdpi="499.92001"
         inkscape:export-ydpi="499.92001">
        <path
           sodipodi:nodetypes="ccccc"
           inkscape:connector-curvature="0"
           id="path5803"
           d="m -587.59709,399.25327 v 126.38928 l 108.79755,-62.8143 V 335.94789 Z"
           style="opacity:1;vector-effect:none;fill:#90a8d8;fill-opacity:1;stroke:#000000;stroke-width:1.7510277;stroke-linecap:round;stroke-linejoin:round;stroke-miterlimit:4;stroke-dasharray:none;stroke-dashoffset:0;stroke-opacity:1" />
        <path
           style="opacity:1;vector-effect:none;fill:#90a8d8;fill-opacity:1;stroke:#000000;stroke-width:1.7510277;stroke-linecap:round;stroke-linejoin:round;stroke-miterlimit:4;stroke-dasharray:none;stroke-dashoffset:0;stroke-opacity:1"
           d="m -587.59709,399.25327 v 126.38928 l -108.79754,-62.8143 V 335.94789 Z"
           id="path5805"
           inkscape:connector-curvature="0"
           sodipodi:nodetypes="ccccc" />
        <path
           sodipodi:nodetypes="ccccc"
           inkscape:connector-curvature="0"
           id="path5807"
           d="m -478.79954,335.94789 -108.79755,63.30538 -108.79754,-63.30538 108.79754,-62.96113 z"
           style="opacity:1;vector-effect:none;fill:#90a8d8;fill-opacity:1;stroke:#000000;stroke-width:1.7510277;stroke-linecap:round;stroke-linejoin:round;stroke-miterlimit:4;stroke-dasharray:none;stroke-dashoffset:0;stroke-opacity:1" />
      </g>
      <path
         sodipodi:nodetypes="ccccc"
         inkscape:connector-curvature="0"
         id="path4649"
         d="m -587.59709,249.29791 v 126.38928 l 108.79755,-62.8143 V 185.99253 Z"
         style="fill:#ddbc91;fill-opacity:1;stroke:#000000;stroke-width:1.75102758;stroke-linecap:round;stroke-linejoin:round;stroke-miterlimit:4;stroke-dasharray:none;stroke-opacity:1"
         inkscape:export-xdpi="499.92001"
         inkscape:export-ydpi="499.92001" />
      <path
         style="opacity:1;vector-effect:none;fill:#d9b383;fill-opacity:1;stroke:#000000;stroke-width:1.5622561;stroke-linecap:round;stroke-linejoin:round;stroke-miterlimit:4;stroke-dasharray:none;stroke-dashoffset:0;stroke-opacity:1"
         d="m -587.59709,249.29791 v 126.38928 l -108.79754,-62.8143 V 185.99253 Z"
         id="path4651"
         inkscape:connector-curvature="0"
         sodipodi:nodetypes="ccccc"
         inkscape:export-xdpi="499.92001"
         inkscape:export-ydpi="499.92001" />
      <path
         sodipodi:nodetypes="ccccc"
         inkscape:connector-curvature="0"
         id="path4653"
         d="m -478.79954,185.99253 -108.79755,63.30538 -108.79754,-63.30538 108.79754,-62.96113 z"
         style="fill:#ddbc91;fill-opacity:1;stroke:#000000;stroke-width:1.75102758;stroke-linecap:round;stroke-linejoin:round;stroke-miterlimit:4;stroke-dasharray:none;stroke-opacity:1"
         inkscape:export-xdpi="499.92001"
         inkscape:export-ydpi="499.92001" />
      <g
         id="g4703"
         transform="matrix(1.6545144,0,0,1.6545144,-662.79747,-9.7087)"
         style="opacity:1;vector-effect:none;fill:#f3f4e4;fill-opacity:1;stroke:#000000;stroke-width:1.05833328;stroke-linecap:round;stroke-linejoin:round;stroke-miterlimit:4;stroke-dasharray:none;stroke-dashoffset:0;stroke-opacity:1"
         inkscape:export-xdpi="499.92001"
         inkscape:export-ydpi="499.92001">
        <path
           inkscape:connector-curvature="0"
           style="vector-effect:none;fill:#f3f4e4;fill-opacity:1;stroke:#000000;stroke-width:3;stroke-linecap:round;stroke-linejoin:round;stroke-miterlimit:4;stroke-dasharray:none;stroke-dashoffset:0;stroke-opacity:1"
           d="m -713.3418,130.54492 v 163.03516 l 139.79883,80.71484 139.80078,-80.71484 V 130.54492 l -139.80078,81.3457 z"
           transform="matrix(0.35277777,0,0,0.35277777,247.78456,81.707826)"
           id="path4697" />
        <path
           style="vector-effect:none;fill:#f3f4e4;fill-opacity:1;stroke:#000000;stroke-width:1.05833328;stroke-linecap:round;stroke-linejoin:round;stroke-miterlimit:4;stroke-dasharray:none;stroke-dashoffset:0;stroke-opacity:1"
           d="M 94.770135,127.76116 45.451638,156.45782 -3.8668589,127.76116 45.451638,99.220548 Z"
           id="path4701"
           inkscape:connector-curvature="0"
           sodipodi:nodetypes="ccccc" />
      </g>
      <path
         style="opacity:1;vector-effect:none;fill:#d9dbbc;fill-opacity:1;stroke:#000000;stroke-width:1.7510277;stroke-linecap:round;stroke-linejoin:round;stroke-miterlimit:4;stroke-dasharray:none;stroke-dashoffset:0;stroke-opacity:1"
         d="m -587.59709,154.45314 v 94.69988 l -81.59816,47.68125 v -95.1603 z"
         id="path4788"
         inkscape:connector-curvature="0"
         inkscape:export-xdpi="499.92001"
         inkscape:export-ydpi="499.92001" />
      <path
         inkscape:connector-curvature="0"
         id="path4830"
         d="m -587.59709,154.45314 v 94.69988 l 81.59817,47.68125 v -95.1603 z"
         style="opacity:1;vector-effect:none;fill:#eaeccf;fill-opacity:1;stroke:#000000;stroke-width:1.7510277;stroke-linecap:round;stroke-linejoin:round;stroke-miterlimit:4;stroke-dasharray:none;stroke-dashoffset:0;stroke-opacity:1"
         inkscape:export-xdpi="499.92001"
         inkscape:export-ydpi="499.92001" />
      <g
         style="opacity:1;vector-effect:none;fill:#90a8d8;fill-opacity:1;stroke:#000000;stroke-width:1.58749998;stroke-linecap:butt;stroke-linejoin:miter;stroke-miterlimit:4;stroke-dasharray:none;stroke-dashoffset:0;stroke-opacity:1"
         transform="matrix(1.1030096,0,0,1.1030096,-637.73068,76.7201)"
         id="g4695"
         inkscape:export-xdpi="499.92001"
         inkscape:export-ydpi="499.92001">
        <path
           sodipodi:nodetypes="ccccc"
           inkscape:connector-curvature="0"
           id="path4689"
           d="m 45.451638,156.45782 v 57.29292 l 49.318497,-28.47405 v -57.51553 z"
           style="vector-effect:none;fill:#90a8d8;fill-opacity:1;stroke:#000000;stroke-width:1.58749998;stroke-linecap:round;stroke-linejoin:round;stroke-miterlimit:4;stroke-dasharray:none;stroke-dashoffset:0;stroke-opacity:1" />
        <path
           style="vector-effect:none;fill:#90a8d8;fill-opacity:1;stroke:#000000;stroke-width:1.58749998;stroke-linecap:round;stroke-linejoin:round;stroke-miterlimit:4;stroke-dasharray:none;stroke-dashoffset:0;stroke-opacity:1"
           d="m 45.451638,156.45782 v 57.29292 L -3.866859,185.27669 v -57.51553 z"
           id="path4691"
           inkscape:connector-curvature="0"
           sodipodi:nodetypes="ccccc" />
        <path
           sodipodi:nodetypes="ccccc"
           inkscape:connector-curvature="0"
           id="path4693"
           d="M 94.770135,127.76116 45.451638,156.45782 -3.8668589,127.76116 45.451638,99.220548 Z"
           style="vector-effect:none;fill:#90a8d8;fill-opacity:1;stroke:#000000;stroke-width:1.58749998;stroke-linecap:round;stroke-linejoin:round;stroke-miterlimit:4;stroke-dasharray:none;stroke-dashoffset:0;stroke-opacity:1" />
      </g>
      <rect
         style="opacity:1;vector-effect:none;fill:none;fill-opacity:1;stroke:none;stroke-width:1.41293824;stroke-linecap:round;stroke-linejoin:round;stroke-miterlimit:4;stroke-dasharray:none;stroke-dashoffset:0;stroke-opacity:1"
         id="rect5777"
         width="281.65912"
         height="552.58508"
         x="-728.42657"
         y="95.064545"
         inkscape:export-xdpi="499.92001"
         inkscape:export-ydpi="499.92001" />
    </g>
  </g>
</svg>

<svg xmlns="http://www.w3.org/2000/svg" width="400" height="400"><path d="M-151.786 359.629v112.764l97.069-56.043V303.148Z" style="fill:#ddbc91;fill-opacity:1;stroke:#000;stroke-width:1.5622561;stroke-linecap:round;stroke-linejoin:round;stroke-miterlimit:4;stroke-dasharray:none;stroke-opacity:1" transform="translate(460.051 -416.239) scale(1.71328)"/><path d="M-151.786 359.629v112.764l-97.068-56.043V303.148Z" style="fill:#d9b383;fill-opacity:1;stroke:#000;stroke-width:1.5622561;stroke-linecap:round;stroke-linejoin:round;stroke-miterlimit:4;stroke-dasharray:none;stroke-opacity:1" transform="translate(460.051 -416.239) scale(1.71328)"/><path d="m-54.717 303.148-97.069 56.48-97.068-56.48 97.068-56.173z" style="fill:#ddbc91;fill-opacity:1;stroke:#000;stroke-width:1.5622561;stroke-linecap:round;stroke-linejoin:round;stroke-miterlimit:4;stroke-dasharray:none;stroke-opacity:1" transform="translate(460.051 -416.239) scale(1.71328)"/><g style="opacity:1;vector-effect:none;fill:#f3f4e4;fill-opacity:1;stroke:#000;stroke-width:1.05833328;stroke-linecap:round;stroke-linejoin:round;stroke-miterlimit:4;stroke-dasharray:none;stroke-dashoffset:0;stroke-opacity:1"><path d="M78.834 129.191v141.305L200 340.451l121.166-69.955V129.191L200 199.693Z" style="vector-effect:none;fill:#f3f4e4;fill-opacity:1;stroke:#000;stroke-width:2.600106;stroke-linecap:round;stroke-linejoin:round;stroke-miterlimit:4;stroke-dasharray:none;stroke-dashoffset:0;stroke-opacity:1" transform="translate(-5.882 -5.882) scale(1.02941)"/><path d="m94.77 127.761-49.318 28.697-49.319-28.697 49.319-28.54Z" style="vector-effect:none;fill:#f3f4e4;fill-opacity:1;stroke:#000;stroke-width:1.05833328;stroke-linecap:round;stroke-linejoin:round;stroke-miterlimit:4;stroke-dasharray:none;stroke-dashoffset:0;stroke-opacity:1" transform="translate(85.05 -196.005) scale(2.52905)"/></g><path d="M-151.786 275.009v84.49l-72.801 42.541v-84.9z" style="opacity:1;vector-effect:none;fill:#d9dbbc;fill-opacity:1;stroke:#000;stroke-width:1.56225622;stroke-linecap:round;stroke-linejoin:round;stroke-miterlimit:4;stroke-dasharray:none;stroke-dashoffset:0;stroke-opacity:1" transform="translate(460.051 -416.239) scale(1.71328)"/><path d="M-151.786 275.009v84.49l72.802 42.541v-84.9z" style="opacity:1;vector-effect:none;fill:#eaeccf;fill-opacity:1;stroke:#000;stroke-width:1.56225622;stroke-linecap:round;stroke-linejoin:round;stroke-miterlimit:4;stroke-dasharray:none;stroke-dashoffset:0;stroke-opacity:1" transform="translate(460.051 -416.239) scale(1.71328)"/><g style="opacity:1;vector-effect:none;fill:#90a8d8;fill-opacity:1;stroke:#000;stroke-width:1.58749998;stroke-linecap:butt;stroke-linejoin:miter;stroke-miterlimit:4;stroke-dasharray:none;stroke-dashoffset:0;stroke-opacity:1"><path d="M45.452 156.458v57.293l49.318-28.474V127.76zm0 0v57.293l-49.319-28.474V127.76z" style="vector-effect:none;fill:#90a8d8;fill-opacity:1;stroke:#000;stroke-width:1.58749998;stroke-linecap:round;stroke-linejoin:round;stroke-miterlimit:4;stroke-dasharray:none;stroke-dashoffset:0;stroke-opacity:1" transform="translate(123.367 -63.892) scale(1.68604)"/><path d="m94.77 127.761-49.318 28.697-49.319-28.697 49.319-28.54Z" style="vector-effect:none;fill:#90a8d8;fill-opacity:1;stroke:#000;stroke-width:1.58749998;stroke-linecap:round;stroke-linejoin:round;stroke-miterlimit:4;stroke-dasharray:none;stroke-dashoffset:0;stroke-opacity:1" transform="translate(123.367 -63.892) scale(1.68604)"/></g><path d="M-587.597 399.253v126.39l108.797-62.815v-126.88Zm0 0v126.39l-108.798-62.815v-126.88Zm108.797-63.305-108.797 63.305-108.798-63.305 108.798-62.961z" style="opacity:1;vector-effect:none;fill:#90a8d8;fill-opacity:1;stroke:#000;stroke-width:1.7510277;stroke-linecap:round;stroke-linejoin:round;stroke-miterlimit:4;stroke-dasharray:none;stroke-dashoffset:0;stroke-opacity:1" transform="translate(460.051 -240.074) scale(1.71328)"/><path d="M-587.597 399.253v126.39l108.797-62.815v-126.88Zm0 0v126.39l-108.798-62.815v-126.88Zm108.797-63.305-108.797 63.305-108.798-63.305 108.798-62.961z" style="opacity:1;vector-effect:none;fill:#90a8d8;fill-opacity:1;stroke:#000;stroke-width:1.7510277;stroke-linecap:round;stroke-linejoin:round;stroke-miterlimit:4;stroke-dasharray:none;stroke-dashoffset:0;stroke-opacity:1" transform="translate(460.051 -456.614) scale(1.71328)"/><path d="M-587.597 249.298v126.39l108.797-62.815v-126.88Z" style="fill:#ddbc91;fill-opacity:1;stroke:#000;stroke-width:1.75102758;stroke-linecap:round;stroke-linejoin:round;stroke-miterlimit:4;stroke-dasharray:none;stroke-opacity:1" transform="translate(460.051 -416.239) scale(1.71328)"/><path d="M-587.597 249.298v126.39l-108.798-62.815v-126.88Z" style="opacity:1;vector-effect:none;fill:#d9b383;fill-opacity:1;stroke:#000;stroke-width:1.5622561;stroke-linecap:round;stroke-linejoin:round;stroke-miterlimit:4;stroke-dasharray:none;stroke-dashoffset:0;stroke-opacity:1" transform="translate(460.051 -416.239) scale(1.71328)"/><path d="m-478.8 185.993-108.797 63.305-108.798-63.305 108.798-62.962z" style="fill:#ddbc91;fill-opacity:1;stroke:#000;stroke-width:1.75102758;stroke-linecap:round;stroke-linejoin:round;stroke-miterlimit:4;stroke-dasharray:none;stroke-opacity:1" transform="translate(460.051 -416.239) scale(1.71328)"/><g style="opacity:1;vector-effect:none;fill:#f3f4e4;fill-opacity:1;stroke:#000;stroke-width:1.05833328;stroke-linecap:round;stroke-linejoin:round;stroke-miterlimit:4;stroke-dasharray:none;stroke-dashoffset:0;stroke-opacity:1"><path d="M-713.342 130.545V293.58l139.799 80.715 139.8-80.715V130.545l-139.8 81.346z" style="vector-effect:none;fill:#f3f4e4;fill-opacity:1;stroke:#000;stroke-width:3;stroke-linecap:round;stroke-linejoin:round;stroke-miterlimit:4;stroke-dasharray:none;stroke-dashoffset:0;stroke-opacity:1" transform="translate(26.875 -201.26)"/><path d="m94.77 127.761-49.318 28.697-49.319-28.697 49.319-28.54Z" style="vector-effect:none;fill:#f3f4e4;fill-opacity:1;stroke:#000;stroke-width:1.05833328;stroke-linecap:round;stroke-linejoin:round;stroke-miterlimit:4;stroke-dasharray:none;stroke-dashoffset:0;stroke-opacity:1" transform="translate(-675.506 -432.872) scale(2.83465)"/></g><path d="M-587.597 154.453v94.7l-81.598 47.681v-95.16z" style="opacity:1;vector-effect:none;fill:#d9dbbc;fill-opacity:1;stroke:#000;stroke-width:1.7510277;stroke-linecap:round;stroke-linejoin:round;stroke-miterlimit:4;stroke-dasharray:none;stroke-dashoffset:0;stroke-opacity:1" transform="translate(460.051 -416.239) scale(1.71328)"/><path d="M-587.597 154.453v94.7L-506 296.834v-95.16z" style="opacity:1;vector-effect:none;fill:#eaeccf;fill-opacity:1;stroke:#000;stroke-width:1.7510277;stroke-linecap:round;stroke-linejoin:round;stroke-miterlimit:4;stroke-dasharray:none;stroke-dashoffset:0;stroke-opacity:1" transform="translate(460.051 -416.239) scale(1.71328)"/><g style="opacity:1;vector-effect:none;fill:#90a8d8;fill-opacity:1;stroke:#000;stroke-width:1.58749998;stroke-linecap:butt;stroke-linejoin:miter;stroke-miterlimit:4;stroke-dasharray:none;stroke-dashoffset:0;stroke-opacity:1"><path d="M45.452 156.458v57.293l49.318-28.474V127.76zm0 0v57.293l-49.319-28.474V127.76z" style="vector-effect:none;fill:#90a8d8;fill-opacity:1;stroke:#000;stroke-width:1.58749998;stroke-linecap:round;stroke-linejoin:round;stroke-miterlimit:4;stroke-dasharray:none;stroke-dashoffset:0;stroke-opacity:1" transform="translate(-632.56 -284.796) scale(1.88976)"/><path d="m94.77 127.761-49.318 28.697-49.319-28.697 49.319-28.54Z" style="vector-effect:none;fill:#90a8d8;fill-opacity:1;stroke:#000;stroke-width:1.58749998;stroke-linecap:round;stroke-linejoin:round;stroke-miterlimit:4;stroke-dasharray:none;stroke-dashoffset:0;stroke-opacity:1" transform="translate(-632.56 -284.796) scale(1.88976)"/></g><path d="M-728.427 95.065h281.659V647.65h-281.659z" style="opacity:1;vector-effect:none;fill:none;fill-opacity:1;stroke:none;stroke-width:1.41293824;stroke-linecap:round;stroke-linejoin:round;stroke-miterlimit:4;stroke-dasharray:none;stroke-dashoffset:0;stroke-opacity:1" transform="translate(460.051 -416.239) scale(1.71328)"/></svg>
